X: 3844
T: Black Knife, The
R: jig
M: 6/8
K: Eminor
|:E2e e2B|dBd AFD|E2e e2B|efg gfe|
E2e e2B|dBd AFD|~G3 ~A3|1 BGE E2D:|2 BGE E2A||
|:BDE EFG|~B3 AFA|BGE EFG|~B3 AFD|
[1 BDE EFG|~B3 AFA|BeB AdA|GBG FGA:|
[2 BeB AdA|~G3 ~F3|Bdf fdB|AFD E2D||

